X: 6945
T: Chess! Chess! Chess!
R: jig
M: 6/8
K: Adorian
|:cAG AEG|ABG A2 A|Bcd ege|dBA G3|
cBA AGE|AGE DED|GAd ged|BAG A2 A:|
|:cGE e3|dBG g3|gdB G3|BAG BAB|
cBA AGE|AGE DED|GBd ged|BAG A2 A:|

